X:5794
T:Gan Ainm
R:Reel
S:Dermy Diamond, Belfast (fiddle)
D:Session tape, Belfast 1982
M:4/4
Z:Bernie Stocks
K:D %i.e. A modal
A3g fded | (3Bcd ef gfge | (3Bcd eg fdfa | gedg eAA2 :| a2ef g2fg | eAcA cde2 |
a2ea fdfa | gedg eAAa | {b}a2ea fdfg | eAcA cdeg | a2ea fdfa | gedg eAAa ||


